X: 480
T: A Whack At The Whigs
R: slip jig
M: 9/8
K: Gmixolydian
|:cAG GDG G2 d|cAG G^FG Add|cAG GDG G2 A|^FGA =fed cAF:|
|:de^f gaf g2 f|de^f gbg afd|1 cde fge f2 d|cde fed cAF:|
[2 bag ag^f g2 d|cde fed cAF||
|:BGB A^FA G2 A|B^AB GB/c/d cB=A|1 BG/A/B A^F/G/A G2 A|^FGA =fed cAF:|
[2 fd/e/f ece d2 A|^FGA =fed cAF||G3- G3- G3||

